_assets/images/fb.svg

<svg height="100" viewBox="0 0 100 100" width="100" xmlns="http://www.w3.org/2000/svg" xmlns:xlink="http://www.w3.org/1999/xlink"><mask id="a" fill="#fff"><path d="m0 0h100v99.5098039h-100z" fill="#fff" fill-rule="evenodd"/></mask><path d="m100 50.0589711c0-27.6468267-22.3857422-50.0589711-50-50.0589711s-50 22.4121444-50 50.0589711c0 24.9858795 18.2842773 45.6954323 42.1875 49.4508328v-34.9806615h-12.6953125v-14.4701713h12.6953125v-11.0286171c0-12.5460296 7.4646484-19.4760684 18.8857422-19.4760684 5.4704101 0 11.1923828.9777143 11.1923828.9777143v12.3191999h-6.3048828c-6.2112305 0-8.1482422 3.8587449-8.1482422 7.81751v9.3902613h13.8671875l-2.2167969 14.4701713h-11.6503906v34.9806615c23.9032227-3.7554005 42.1875-24.4649533 42.1875-49.4508328" fill="#0a0b09" fill-rule="evenodd" mask="url(#a)"/></svg>

<?xml version="1.0" encoding="UTF-8"?>
<svg width="100px" height="100px" viewBox="0 0 100 100" version="1.1" xmlns="http://www.w3.org/2000/svg" xmlns:xlink="http://www.w3.org/1999/xlink">
    <!-- Generator: Sketch 57.1 (83088) - https://sketch.com -->
    <title>Group 3</title>
    <desc>Created with Sketch.</desc>
    <defs>
        <polygon id="path-1" points="-5.32916593e-15 0 100 0 100 99.5098039 -5.32916593e-15 99.5098039"></polygon>
    </defs>
    <g id="Page-1" stroke="none" stroke-width="1" fill="none" fill-rule="evenodd">
        <g id="f_logo_RGB-Black_1024" transform="translate(-335.000000, -290.000000)">
            <g id="Group-3" transform="translate(335.000000, 290.000000)">
                <mask id="mask-2" fill="white">
                    <use xlink:href="#path-1"></use>
                </mask>
                <g id="Clip-2"></g>
                <path d="M100,50.0589711 C100,22.4121444 77.6142578,0 50,0 C22.3857422,0 0,22.4121444 0,50.0589711 C0,75.0448506 18.2842773,95.7544034 42.1875,99.5098039 L42.1875,64.5291424 L29.4921875,64.5291424 L29.4921875,50.0589711 L42.1875,50.0589711 L42.1875,39.030354 C42.1875,26.4843244 49.6521484,19.5542856 61.0732422,19.5542856 C66.5436523,19.5542856 72.265625,20.5319999 72.265625,20.5319999 L72.265625,32.8511998 L65.9607422,32.8511998 C59.7495117,32.8511998 57.8125,36.7099447 57.8125,40.6687098 L57.8125,50.0589711 L71.6796875,50.0589711 L69.4628906,64.5291424 L57.8125,64.5291424 L57.8125,99.5098039 C81.7157227,95.7544034 100,75.0448506 100,50.0589711" id="Fill-1" fill="#0A0B09" mask="url(#mask-2)"></path>
            </g>
        </g>
    </g>
</svg>
